svgs/sharp-light/child-dress.svg

<svg xmlns="http://www.w3.org/2000/svg" viewBox="0 0 320 512"><!--! Font Awesome Pro 6.6.0 by @fontawesome - https://fontawesome.com License - https://fontawesome.com/license (Commercial License) Copyright 2024 Fonticons, Inc. --><path d="M160 96a32 32 0 1 0 0-64 32 32 0 1 0 0 64zm0-96a64 64 0 1 1 0 128A64 64 0 1 1 160 0zM96 400l-24 0-20.9 0 5.4-20.2L98 225.8 28.6 313.9 3.4 294.1l100.9-128 4.8-6.1 6.6 0 1.2 0 11.1 0 64 0 11.1 0 1.2 0 6.6 0 4.8 6.1 100.9 128-25.1 19.8L222 225.8l41.5 154 5.4 20.2L248 400l-24 0 0 96 0 16-32 0 0-16 0-96-64 0 0 96 0 16-32 0 0-16 0-96zm83.7-208l-39.5 0L92.9 368l134.2 0L179.7 192z"/></svg>

<svg xmlns="http://www.w3.org/2000/svg" viewBox="0 0 320 512"><!--! Font Awesome Pro 6.4.0 by @fontawesome - https://fontawesome.com License - https://fontawesome.com/license (Commercial License) Copyright 2023 Fonticons, Inc. --><path d="M160 96a32 32 0 1 0 0-64 32 32 0 1 0 0 64zm0-96a64 64 0 1 1 0 128A64 64 0 1 1 160 0zM96 400H72 51.1l5.4-20.2L98 225.8 28.6 313.9 3.4 294.1l100.9-128 4.8-6.1h6.6 1.2H128h64 11.1 1.2 6.6l4.8 6.1 100.9 128-25.1 19.8L222 225.8l41.5 154 5.4 20.2H248 224v96 16H192V496 400H128v96 16H96V496 400zm83.7-208H140.3L92.9 368H227.1L179.7 192z"/></svg>
